src/icons/osm.svg

<?xml version="1.0" encoding="UTF-8" standalone="no"?>
<svg width="12px" height="12px" viewBox="0 0 12 12" version="1.1" xmlns="http://www.w3.org/2000/svg" xmlns:xlink="http://www.w3.org/1999/xlink">
    <!-- Generator: Sketch 3.7 (28169) - http://www.bohemiancoding.com/sketch -->
    <title>osm</title>
    <desc>Created with Sketch.</desc>
    <defs></defs>
    <g id="Page-1" stroke="none" stroke-width="1" fill="none" fill-rule="evenodd">
        <path d="M6.57719034,0.500058315 L5.30383203,0.00455368648 L2.6273712,1.01907267 L0,0 L0.992040926,2.76684109 L0.0058415633,5.45224531 L1.00444144,8.21305012 L0.00440679337,10.9290259 L0.617053555,11.1493307 L4.00567269,7.70240183 L4.56974224,7.76234106 L5.29645321,7.07611109 C5.29645321,7.07611109 4.57865817,6.15764302 4.3853743,5.21767751 C4.57865824,5.07220425 4.56974218,5.07873196 4.74099228,4.93301916 C4.09980397,1.93105418 6.57719034,0.500058315 6.57719034,0.500058315 Z M2.4065365,11.8536821 L2.62730097,11.9739482 L5.30715063,10.9230755 L7.92638823,11.964127 L10.5708382,10.9353668 L11.5910558,8.21729455 L11.2526527,7.27280884 C11.2526527,7.27280884 10.1251544,8.53345613 7.81205056,8.15119231 C7.63863744,8.43624353 7.56208986,8.52051798 7.56208986,8.52051798 C7.56208986,8.52051798 6.45462511,8.20617949 5.88088785,7.62584419 C5.30715059,8.20617948 5.08450804,8.33250299 5.08450804,8.33250299 L5.16606398,8.96576713 L2.4065365,11.8536821 Z M8.66684475,7.45935044 C10.4840397,7.45935044 11.9571673,5.93711859 11.9571673,4.05935044 C11.9571673,2.18158229 10.4840397,0.659350438 8.66684475,0.659350438 C6.84964977,0.659350438 5.37652217,2.18158229 5.37652217,4.05935044 C5.37652217,5.93711859 6.84964977,7.45935044 8.66684475,7.45935044 Z" id="osm" fill="#797979"></path>
    </g>
</svg>

<svg xmlns="http://www.w3.org/2000/svg" width="12" height="12">
  <path fill="#797979" fill-rule="evenodd" d="M6.577.5L5.304.005 2.627 1.02 0 0l.992 2.767-.986 2.685.998 2.76-1 2.717.613.22 3.39-3.45.563.06.726-.69s-.717-.92-.91-1.86c.193-.146.184-.14.355-.285C4.1 1.93 6.58.5 6.58.5zm-4.17 11.354l.22.12 2.68-1.05 2.62 1.04 2.644-1.03 1.02-2.717-.33-.944s-1.13 1.26-3.44.878c-.174.29-.25.37-.25.37s-1.11-.31-1.683-.89c-.573.58-.795.71-.795.71l.08.634-2.76 2.89zm6.26-4.395c1.817 0 3.29-1.53 3.29-3.4 0-1.88-1.473-3.4-3.29-3.4s-3.29 1.52-3.29 3.4c0 1.87 1.473 3.4 3.29 3.4z"/>
</svg>
